X:1
T:Title
%%score 1 2
L:1/8
Q:1/4=102
M:4/4
K:Bb
V:1 treble nm="Grand Piano, Soprano"
V:2 bass nm="Choir Pad, Bass"
V:1
 [Fd]3 [Ec] [DB]2 [DB]2 | [Ec]2 [EB]2 [EG]4 | [GB]2 [EG]2 [DF]3 [DF] | [FB]2 [Fd]2 [Fc]4 | %4
w: By~Ira~David~Sankey,~1874 * * *||||
 [Fd]3 [Ge] [Fd]3 [Fc] | [Fd]3 [Ec] [DB]4 | [GB]2 [EG]2 F3 [DB] | [Fd]2 [Ec]2 [DB]4 | %8
w: ||||
 [Ff]3 [Fe] [Fd]3 [Fc] | [FB]2 [EG]2 [DF]4 | [DF]2 [DF]2 [DB]3 [DF] | [FB]2 [Fd]2 [Fc]4 | %12
w: ||||
 [Fd]2 [Fe]2 [Ff]3 [Fd] | [Fc]2 [FB]2 [EG]4 | [GB]2 [EG]2 [DF]3 [DB] | [FB]2 z .[EA] [DB]4- | %16
w: ||||
 [DB]4 z4 |] %17
w: |
V:2
 [B,,B,]3 [B,,B,] [B,,B,]2 [B,,B,]2 | [E,G,]2 [E,G,]2 [E,B,]4 | [E,B,]2 [E,B,]2 [B,,B,]3 [B,,B,] | %3
 [D,B,]2 [B,,B,]2 [F,A,]4 | [B,,B,]3 [B,,B,] [B,,B,]3 [F,A,] | [F,B,]3 [F,A,] [B,,B,]4 | %6
 [E,B,]2 [E,B,]2 [D,B,]3 [G,B,] | [F,B,]2 [F,A,]2 [B,,B,]4 | [B,D]3 [B,C] B,3 [F,A,] | %9
 [D,B,]2 [E,B,]2 [B,,B,]4 | [B,,B,]2 [B,,B,]2 [B,,F,]3 [B,,B,] | [D,B,]2 [B,,B,]2 [F,A,]4 | %12
 B,2 [B,C]2 [B,D]3 B, | [F,A,]2 [D,B,]2 [E,B,]4 | [E,B,]2 [E,B,]2 [F,B,]3 [F,B,] | %15
 [F,D]2 z .[F,C] [B,,B,]4- | [B,,B,]4 z4 |] %17

